dist/images/asaid-nav-icon/person-Icon.svg

<?xml version="1.0" encoding="UTF-8"?>
<svg width="25px" height="25px" viewBox="0 0 25 25" version="1.1" xmlns="http://www.w3.org/2000/svg" xmlns:xlink="http://www.w3.org/1999/xlink">
    <!-- Generator: Sketch 57.1 (83088) - https://sketch.com -->
    <title>Person Icon</title>
    <desc>Created with Sketch.</desc>
    <g id="Pages" stroke="none" stroke-width="1" fill="none" fill-rule="evenodd">
        <g id="Blog-Overview-Template" transform="translate(-57.000000, -758.000000)" fill="#CACEDB" fill-rule="nonzero">
            <g id="Sidebar">
                <g id="Menu-Items" transform="translate(0.000000, 137.000000)">
                    <g id="User-Profile" transform="translate(0.000000, 575.000000)">
                        <g id="Person-Icon" transform="translate(57.000000, 46.000000)">
                            <path d="M12.5,12.5 C15.953125,12.5 18.75,9.703125 18.75,6.25 C18.75,2.796875 15.953125,0 12.5,0 C9.046875,0 6.25,2.796875 6.25,6.25 C6.25,9.703125 9.046875,12.5 12.5,12.5 Z M12.5,15.625 C8.328125,15.625 0,17.71875 0,21.875 L0,25 L25,25 L25,21.875 C25,17.71875 16.671875,15.625 12.5,15.625 Z" id="person_icon"></path>
                        </g>
                    </g>
                </g>
            </g>
        </g>
    </g>
</svg>

<svg width="25" height="25" viewBox="0 0 25 25" xmlns="http://www.w3.org/2000/svg">
    <path d="M12.5 12.5a6.248 6.248 0 006.25-6.25A6.248 6.248 0 0012.5 0a6.248 6.248 0 00-6.25 6.25 6.248 6.248 0 006.25 6.25zm0 3.125c-4.172 0-12.5 2.094-12.5 6.25V25h25v-3.125c0-4.156-8.328-6.25-12.5-6.25z"
          fill="#CACEDB" fill-rule="nonzero"/>
</svg>
